X:1
T:Marina del Rey, 76.76.76 D
T:Marina del Rey, 76.76.76 D
T:Emily Devine Wilson, 1902
T:Public Domain Courtesy of the Cyber Hymnal™
C:Emily Devine Wilson, 1902
Z:Public Domain
Z:Courtesy of the Cyber Hymnal™
%%score ( 1 2 ) ( 3 4 )
L:1/8
Q:1/4=102
M:6/8
K:Ab
V:1 treble 
V:2 treble 
V:3 bass 
V:4 bass 
V:1
 E | [Ec]2 [Ec] [Ec]2 [DB] | [DB] [CA]4 [CA] | [DA]2 [DB] [DA]2 [DF] | [CE]3- [CE]2 [CE] | %5
 [Ec]2 [Ec] [Ec]2 [DB] | [DB] [CA]4 [Ec] | [Ec]2 [EB] [A=d]2 [AB] | [Ge]3- [Ge]2 [Ge] | %9
 [GB]2 [Gc] [Gd]2 [Gd] | [Gd] [Ac]4 [Ec] | [=Ec]2 [EG] [Ec]2 [EB] | [FA]3- [FA]2 [FA] | %13
 [FA]2 [FA] [FA]2 [DF] | [DF] [CE]4 [CA] | [Ec]2 [Ec] [Ec]2 [DB] | [CA]3- [CA]2 [Ac] | %17
 [Ae]2 [Ae] [Ae]2 [Ac] | [GB] [EA]4 [Ac] | [Ae]2 [Ae] [Ae]2 [Ac] | [GB]3- [GB]2 [DE] | %21
 [Ec]2 [Ec] [Ec]2 [_Ge] | [Fe] [Fd]4 [FB] | [EA]2 [Ec] [Ec]2 [DB] | [CA]3- [CA]2 |] %25
V:2
 E | x6 | x6 | x6 | x6 | x6 | x6 | x6 | x6 | x6 | x6 | x6 | x6 | x6 | x6 | x6 | x6 | x6 | x6 | x6 | %20
 x6 | x6 | x6 | x6 | x5 |] %25
V:3
 E, | [A,,A,]2 [A,,A,] [A,,A,]2 [E,G,] | [E,G,] [A,,E,]4 [A,,E,] | [D,F,]2 [D,F,] [D,F,]2 [D,A,] | %4
 [A,,A,]3- [A,,A,]2 [A,,A,] | [A,,A,]2 [A,,A,] [A,,A,]2 [E,G,] | [E,G,] [A,,E,]4 [A,,A,] | %7
 [B,,G,]2 [B,,G,] [B,,F,]2 [B,,B,] | [E,B,]3- [E,B,]2 [E,B,] | [E,D]2 [E,C] [E,B,]2 [E,B,] | %10
 [E,B,] A,4 [A,,A,] | [C,G,]2 [C,G,] [C,C]2 [C,C] | [F,C]3- [F,C]2 [F,C] | %13
 [D,D]2 [D,D] [D,D]2 [D,A,] | [A,,A,] [A,,A,]4 [A,,A,] | [E,A,]2 [E,A,] [E,A,]2 [E,G,] | %16
 [A,,A,]3- [A,,A,]2 A, | [A,C]2 [A,C] [A,C]2 [A,E] | [E,D] [A,C]4 [A,E] | %19
 [A,C]2 [A,C] [A,C]2 [A,E] | [E,E]3- [E,E]2 [E,G,] | [A,,A,]2 [A,,A,] [A,,A,]2 [C,A,] | %22
 [D,A,] [D,A,]4 [D,D] | [E,C]2 [E,A,] [E,A,]2 [E,G,] | [A,,A,]3- [A,,A,]2 |] %25
V:4
 E, | x6 | x6 | x6 | x6 | x6 | x6 | x6 | x6 | x6 | x A,4 x | x6 | x6 | x6 | x6 | x6 | x5 A, | x6 | %18
 x6 | x6 | x6 | x6 | x6 | x6 | x5 |] %25

